!!!COM: k-ci-and-jojo
!!!OTL: all-my-life
!!!RNB: hooktheoryid: vANmpdQZmyM
**kern	**text
*clefG2	*
*k[b-e-a-d-g-]	*
*M4/4	*
=1	=1
16dd-	Db
16dd-	.
16dd-	.
16dd-	.
16dd-	Ab/C
16dd-	.
16dd-	.
16dd-	.
16dd-	Bbmin7
16b-	.
8r	.
16dd-	.
16ee-	.
8ff	.
=2	=2
4b-	Gb
16b-	.
16a-	.
16f	.
[16a-L	.
8.a-]J	Ab
16a-]	.
8.r	.
16a-	.
=3	=3
16dd-	Db
16dd-	.
16dd-	.
16dd-	.
16dd-	Ab/C
16dd-	.
16dd-	.
16dd-	.
16dd-	Bbmin7
16b-	.
16r	.
16b-	.
16dd-	.
16ee-	.
16ff	.
16ff	.
=4	=4
8dd-	Gb
16r	.
16b-	.
16b-	.
16a-	.
16f	.
[16a-L	.
8a-]J	Ab
8ff	.
8dd-	.
8ee-	.
=5	=5
16dd-	Db
16dd-	.
16dd-	.
16dd-	.
16dd-	Ab/C
16dd-	.
16dd-	.
16b-	.
16dd-	Bbmin7
16dd-	.
16dd-	.
16dd-	.
16dd-	.
16dd-	.
16dd-	.
16b-	.
=6	=6
16dd-	Gb
16dd-	.
16dd-	.
16dd-	.
16dd-	.
16dd-	.
16dd-	.
16b-	.
16dd-	Ab
16dd-	.
16dd-	.
16dd-	.
16dd-	.
16dd-	.
16dd-	.
16b-	.
=7	=7
4r	Bbmin7
16dd-	Ab
16ee-	.
16ff	.
[16gg-L	.
8gg-]J	Gb
16ff	.
8ee-	.
16dd-	.
8dd-	.
=8	=8
16dd-	Ebmin7
16ee-	.
8b-	.
8r	.
16dd-	.
16dd-	.
8cc	Ab
16cc	.
[16b-L	.
16b-]J	Ab/C
16ee-	.
8dd-	.
=9	=9
1r	.
*-	*-